!!!COA: Josquin des Prez
!!!CDT: ~1450-1521/08/27
!!!OTL@@LAT: Regina celi letare
!!!OTL2@@LAT: Resurrexit sicut dixit
!!!AGN: Motet
!!!SCT: NJE 25.2
!!!SCA: New Josquin Edition 25.2
!!!voices: 4
**kern	**kern	**kern	**kern
*staff4	*staff3	*staff2	*staff1
*Ivox	*Ivox	*Ivox	*Ivox
*I"Bassus	*I"Tenor	*I"Altus	*I"Superius
*I'B	*I'T	*I'A	*I'S
*>[A,B]	*>[A,B]	*>[A,B]	*>[A,B]
*>Part1[A]	*>Part1[A]	*>Part1[A]	*>Part1[A]
*>Part2[B]	*>Part2[B]	*>Part2[B]	*>Part2[B]
*clefF4	*clefGv2	*clefGv2	*clefG2
*>A	*>A	*>A	*>A
*k[b-]	*k[b-]	*k[b-]	*k[b-]
*M2/1	*M2/1	*M2/1	*M2/1
*met(C|)	*met(C|)	*met(C|)	*met(C|)
!!section: Prima pars: Regina celi letare
!!!OMD: Prima pars
=1-	=1-	=1-	=1-
0F	0c	0r	0f
=2	=2	=2	=2
1B-	1d	0r	1g
1A	1c	.	1f
=3	=3	=3	=3
0G	0d	0r	[0g
=4	=4	=4	=4
0C	0e	0c	0g]
=5	=5	=5	=5
1B-	1r	1d	1g
1F	[1f	1c	[1a
=6	=6	=6	=6
0B-	2f\]	0d	2a/]
.	2e\	.	4g/
.	.	.	4f/
.	1d	.	1g
=7	=7	=7	=7
0A;	0c;	0e;	0a;
=8	=8	=8	=8
0r	0B-	1r	0r
.	.	[1f	.
=9	=9	=9	=9
0r	1A	1f]	0r
.	1G	1e	.
=10	=10	=10	=10
0r	1.B-	2.d\	0b-
.	.	4e\	.
.	.	2f\	.
.	4A/	2g\	.
.	4G/	.	.
=11	=11	=11	=11
1r	1F	2.c\	1a
.	.	4d\	.
[1B-	[1G	2e\	2.g/
.	.	[2d\	.
.	.	.	8f/L
.	.	.	8e/J
=12	=12	=12	=12
1B-]	1G]	2d\]	1d
.	.	4c\	.
.	.	4B-\	.
1A	1F	1c	2r
.	.	.	2f/
=13	=13	=13	=13
1G	1B-	0d	2g/
.	.	.	1b-
[1B-	2.G/	.	.
.	.	.	4a/
.	4A/	.	4g/
=14	=14	=14	=14
2B-\]	1B-	1r	2f/
4A\	.	.	2g/
4G\	.	.	.
1F	[1c	1f	1a
=15	=15	=15	=15
0G	2c\]	2e\	2.g/
.	4B-\	1d	.
.	4A/	.	8f/L
.	.	.	8e/J
.	1B-	.	2.d/
.	.	4c\	.
.	.	4B-\	4e/
=16	=16	=16	=16
2F\	1c	2A/	2f/
2E\	.	2G/	1g
1D	1F	2A/	.
.	.	2B-\	[2f/
=17	=17	=17	=17
0C	0G	[0c	2f/]
.	.	.	4e/
.	.	.	4d/
.	.	.	1e
=18	=18	=18	=18
1r	0F	0c]	[0f
[1F	.	.	.
=19	=19	=19	=19
2F\]	1r	2r	0f]
2E\	.	1c	.
1D	[1f	.	.
.	.	2B-\	.
=20	=20	=20	=20
1C	2f\]	2A/	0r
.	2e\	4G/	.
.	.	4A/	.
2r	2.d\	4B-\	.
.	.	4c\	.
2G\	.	4d\	.
.	4B-\	4e\	.
=21	=21	=21	=21
2A\	2c\	2f\	0r
2.B-\	2.d\	2.g\	.
4A\	4c\	4f\	.
[2A\	[2c\	[2f\	.
=22	=22	=22	=22
2A\]	2c\]	2f\]	2r
2G\	2B-\	2e\	1b-
1F	2c\	2f\	.
.	[2f\	[2d\	2a/
=23	=23	=23	=23
0G	2f\]	4d\]	1.g
.	.	4c\	.
.	2e\	2.c\	.
.	1d	.	.
.	.	8Bni/L	.
.	.	8A/J	.
.	.	2Bni\	2f/
=24	=24	=24	=24
1C	2.c\	1G	2.e/
.	4B-\	.	4d/
2r	4A/	1r	[1c
.	4G/	.	.
[2F\	[2A/	.	.
=25	=25	=25	=25
2F\]	2A/]	1r	1c]
2E\	2G/	.	.
2.D\	1A	[1d	[1f
4C/	.	.	.
=26	=26	=26	=26
1BB-	1B-	0d]	0f_
[1B-	1r	.	.
=27	=27	=27	=27
2B-\]	1r	1.f	1f]
2A\	.	.	.
1G	1B-	.	1g
.	.	2e\	.
=28	=28	=28	=28
2.F\	2A/	2d\	1a
.	2F/	2c\	.
4E\	.	.	.
1D	2.A/	1d	1f
.	4B-\	.	.
=29	=29	=29	=29
2C/	1c	2e\	2g/
1F	.	2c\	2.a/
.	2A/	1d	.
.	.	.	4g/
2BB-/	2B-\	.	[2f/
=30	=30	=30	=30
1C	1G	1c	2f/]
.	.	.	2e/
[1F	1A	1c	[1f
=31	=31	=31	=31
0F_	1r	2r	1f]
.	.	2F/	.
.	1F	2.c\	1r
.	.	4B-\	.
=32	=32	=32	=32
1F]	1c	4A/	1f
.	.	4G/	.
.	.	1A	.
1F	1r	.	[1cc
.	.	4G/	.
.	.	4F/	.
=33	=33	=33	=33
1c	0F	0f	1cc]
1r	.	.	2r
.	.	.	[2c/
=34	=34	=34	=34
1r	1c	2e\	4c/]
.	.	.	4d/
.	.	2c\	4e/
.	.	.	4f/
1C	1c	2.e\	2.g/
.	.	4f\	4a/
=35	=35	=35	=35
0G	[0d	1g	4b-\
.	.	.	4cc\
.	.	.	2.dd\
.	.	[1g	.
.	.	.	4cc\
.	.	.	[2cc\
=36	=36	=36	=36
1G	1d]	2g\]	2cc\]
.	.	2f\	2bni\
[1A	1c	2e\	[1cc
.	.	2d\	.
=37	=37	=37	=37
1A]	1r	1c	1cc]
[1G	[1B-	2d\	1r
.	.	[2e-i\	.
=38	=38	=38	=38
2G\]	2B-\]	2e-\]	0r
2F\	2A/	2d\	.
2E\	2G/	2c\	.
2D\	2F/	2B-\	.
=39	=39	=39	=39
1E-	1G	1c	1r
[1BB-	2F/	[1d	[1b-
.	[2f\	.	.
=40	=40	=40	=40
1BB-]	2f\]	2d\]	2b-\]
.	2e\	2c\	2a/
1r	2d\	2B-\	2g/
.	2c\	2A/	2f/
=41	=41	=41	=41
1r	1d	1B-	1g
[1c	[1e	2.A/	[1a
.	.	4B-\	.
=42	=42	=42	=42
2c\]	1e]	2c\	0a_
2B-\	.	2d\	.
2A\	[1c	1e	.
2G\	.	.	.
=43	=43	=43	=43
1.F	1c]	0f	1a]
.	1A	.	1r
4E\	.	.	.
4D\	.	.	.
=44	=44	=44	=44
2E\	1c	1r	0r
2F\	.	.	.
[1BB-	[1d	[1f	.
=45	=45	=45	=45
1BB-]	2d\]	1f]	0r
.	2c\	.	.
1r	2B-\	1d	.
.	2G/	.	.
=46	=46	=46	=46
1D	1A	1f	1r
2.E-\	1G	[1g	[1b-
4F\	.	.	.
=47	=47	=47	=47
2.G\	0r	2g\]	1b-]
.	.	4f\	.
4A\	.	4e\	.
2B-\	.	4d\	1g
.	.	4c\	.
2c\	.	2e\	.
=48	=48	=48	=48
1G	1g	1d	1b-
1C	2e\	1c	[1cc
.	2g\	.	.
=49	=49	=49	=49
1.F	2.a\	1r	2cc\]
.	.	.	2b-\
.	4g\	.	.
.	2f\	2.c\	2a/
2C/	[2e\	.	2g/
.	.	4B-\	.
=50	=50	=50	=50
2D\	4e\]	4A/	1f
.	4d\	4G/	.
2F\	2.d\	1A	.
1E	.	.	1g
.	8c#i\L	.	.
.	8Bni\J	.	.
.	2c#i\	2G/	.
=51	=51	=51	=51
1D	1d	1A	1f
1F	2r	2r	2r
.	[2c\	[2f\	[2a/
=52	=52	=52	=52
1G	2c\]	2f\]	2a/]
.	2.B-\	2.e\	2g/
2F\	.	.	2a/
.	4A/	4d\	.
2D\	[2A/	[2d\	2f/
=53	=53	=53	=53
1E	2A/]	2d\]	1g
.	2G/	2c\	.
2D\	2A/	2d\	2f/
2F\	[2c\	[2f\	[2a/
=54	=54	=54	=54
1G	2c\]	2f\]	4a/]
.	.	.	4g/
.	2.B-\	2e\	2g/
2F\	.	2f\	2a/
.	4A/	.	.
2D\	[2A/	[2d\	2f/
=55	=55	=55	=55
1E-i	2A/]	2d\]	1g
.	2G/	2c\	.
2D\	2A/	1d	2f/
2BB-/	2B-\	.	[2f/
=56	=56	=56	=56
1C	1G	1c	2f/]
.	.	.	2e/
1BB-	[1B-	[1d	[1f
=57	=57	=57	=57
2r	2B-\]	1d]	1f]
1F	2A/	.	.
.	1G	2r	1r
2E\	.	[2c\	.
=58	=58	=58	=58
1D	2F/	2c\]	0r
.	1f	2B-\	.
1C	.	2A/	.
.	2e\	4G/	.
.	.	4A/	.
=59	=59	=59	=59
2r	2.d\	4B-\	0r
.	.	4c\	.
2G\	.	4d\	.
.	4B-\	4e\	.
2A\	2c\	2f\	.
[2B-\	[2d\	[2g\	.
=60	=60	=60	=60
2B-\]	4d\]	4g\]	1r
.	4c\	4f\	.
2A\	1c	1f	.
1G	.	.	2r
.	2B-\	2e\	[2b-\
=61	=61	=61	=61
1F	2c\	2f\	2b-\]
.	1f	2.d\	2a/
[1G	.	.	[1g
.	.	4c\	.
.	2e\	[2c\	.
=62	=62	=62	=62
1G]	1d	4c\]	2g/]
.	.	8B-/L	.
.	.	8A/J	.
.	.	2B-\	2f/
1C	2.c\	1G	2.e/
.	4B-\	.	4d/
=63	=63	=63	=63
2r	4A/	0r	0c
.	4G/	.	.
1F	1A	.	.
2E\	2G/	.	.
=64	=64	=64	=64
2.D\	1A	[0d	[0f
4C/	.	.	.
1BB-	1B-	.	.
=65	=65	=65	=65
1.B-	0r	1d]	0f]
.	.	[1f	.
2A\	.	.	.
=66	=66	=66	=66
1G	1B-	2f\]	1g
.	.	2e\	.
2.F\	2A/	2d\	1a
.	2F/	2c\	.
4E\	.	.	.
=67	=67	=67	=67
1D	2.A/	1d	1f
.	4B-\	.	.
2C/	1c	2e\	2g/
[2F\	.	2c\	[2a/
=68	=68	=68	=68
2F\]	2A/	1d	4a/]
.	.	.	4g/
2BB-/	2B-\	.	1f
1C	1G	1c	.
.	.	.	2e/
=69	=69	=69	=69
00F	00F	00c	00f
!!LO:LB:i:g=z
=70||	=70||	=70||	=70||
*>B	*>B	*>B	*>B
!!section: Secunda pars: Resurrexit sicut dixit
!!!OMD: Secunda pars: Resurrexit sicut dixit
0r	0r	0r	0b-
=71	=71	=71	=71
0r	1r	0f	1cc
.	[1B-	.	[1dd
=72	=72	=72	=72
1r	1B-]	1g	1dd]
[1F	1c	[1a	[1cc
=73	=73	=73	=73
1F]	0d	1a]	2cc\]
.	.	.	4b-\
.	.	.	4a/
1G	.	[1g	1b-
=74	=74	=74	=74
0A	2c\	2g\]	1cc
.	1c	4f\	.
.	.	4e\	.
.	.	1f	2r
.	4B-\	.	2c/
.	4A/	.	.
=75	=75	=75	=75
0G	2B-\	1g	1d
.	1c	.	.
.	.	[1g	1d
.	2Bni\	.	.
=76	=76	=76	=76
0C	1.c	1g]	2.e/
.	.	.	4f/
.	.	1c	2g/
.	4B-\	.	2a/
.	4A/	.	.
=77	=77	=77	=77
1r	1G	0d	2b-\
.	.	.	1cc
1G	[1g	.	.
.	.	.	2bni\
=78	=78	=78	=78
1C	1g]	1c	0cc
2r	1c	1r	.
[2c\	.	.	.
=79	=79	=79	=79
2c\]	0d	[0f	1r
4B-\	.	.	.
4A\	.	.	.
2.B-\	.	.	1b-
4A\	.	.	.
=80	=80	=80	=80
1F	0c	1f]	2a/
.	.	.	2.cc\
2r	.	1e	.
.	.	.	4b-\
[2c\	.	.	2a/
=81	=81	=81	=81
2c\]	1r	2c\	2g/
2F\	.	1d	1f
1G	1B-	.	.
.	.	4c\	2e/
.	.	4B-\	.
=82	=82	=82	=82
0F	0c	2A/	0f
.	.	1B-	.
.	.	2A/	.
=83	=83	=83	=83
[0BB-	0d	1B-	1r
.	.	1r	[1f
=84	=84	=84	=84
1BB-]	1.d	0B-	1f]
1r	.	.	1g
.	2e\	.	.
=85	=85	=85	=85
0F	1f	1c	0a
.	4f\	[1d	.
.	4e\	.	.
.	4d\	.	.
.	4c\	.	.
=86	=86	=86	=86
1G	1B-	1d]	1.g
[1A	1r	1c	.
.	.	.	4f/
.	.	.	4e/
=87	=87	=87	=87
1A]	1c	1.c	1f
[1G	[1d	.	[1g
.	.	4B-\	.
.	.	4A/	.
=88	=88	=88	=88
1G]	1d]	2.B-\	1g]
.	.	8A/L	.
.	.	8B-/J	.
[1C	[1e	2.c\	1g
.	.	4d\	.
=89	=89	=89	=89
1C]	1e]	4e\	2c/
.	.	4f\	.
.	.	1g	1cc
[1G	1d	.	.
.	.	4f\	4b-\
.	.	4e\	4a/
=90	=90	=90	=90
1G]	0g	1d	4b-\
.	.	.	4a/
.	.	.	4g/
.	.	.	4f/
1C	.	2.c\	1e
.	.	4B-\	.
=91	=91	=91	=91
0F	1c	0A	2r
.	.	.	1cc
.	[1d	.	.
.	.	.	4b-\
.	.	.	4a/
=92	=92	=92	=92
1G	1d]	1r	1b-
[1A	[1c	[1e	[1a
=93	=93	=93	=93
1A]	1c]	2e\]	1a]
.	.	2f\	.
[1G	2.B-\	[1g	[1b-
.	4c\	.	.
=94	=94	=94	=94
1G]	1d	2g\]	2b-\]
.	.	2f\	2a/
[1C	[1c	2.e\	2.g/
.	.	4d\	4f/
=95	=95	=95	=95
1C]	1c]	1e	2g/
.	.	.	2.a/
1D	1F	2A/	.
.	.	.	4g/
.	.	2B-\	[2f/
=96	=96	=96	=96
1C	1G	2c\	2f/]
.	.	1c	2e/
[1F	1F	.	1f
.	.	2B-\	.
=97	=97	=97	=97
2F\]	1.f	2A/	0r
2E\	.	2G/	.
2D\	.	1A	.
2C/	2e\	.	.
=98	=98	=98	=98
0BB-	2d\	2B-\	1r
.	2c\	2c\	.
.	2B-\	1d	2r
.	2A/	.	[2f/
=99	=99	=99	=99
2r	1G	1B-	2f/]
1B-	.	.	2e/
.	2r	2r	2d/
2A\	[2c\	[2f\	2c/
=100	=100	=100	=100
1G	2c\]	2f\]	1g
.	2B-\	2e\	.
2F\	2A/	2d\	1r
2E\	[2G/	[2c\	.
=101	=101	=101	=101
1D	2G/]	2c\]	0r
.	2F/	2B-\	.
[1C	[1c	2A/	.
.	.	2G/	.
=102	=102	=102	=102
1C]	1c]	1A	1r
[1BB-	2f\	1B-	[1b-
.	2e\	.	.
=103	=103	=103	=103
1BB-]	1d	2r	2b-\]
.	.	2f\	2a/
[1C	2r	2e\	2.g/
.	[2c\	[2f\	.
.	.	.	4f/
=104	=104	=104	=104
1C]	2c\]	2f\]	1g
.	2B-\	2e\	.
1F	2A/	2d\	2.a/
.	2F/	2c\	.
.	.	.	4f/
=105	=105	=105	=105
2r	1B-	1.d	1f
1B-	.	.	.
.	2G/	.	2.g/
2A\	2A/	2c\	.
.	.	.	4f/
=106	=106	=106	=106
2G\	2B-\	2e\	2g/
2F\	2.f\	2.d\	2.a/
1A	.	.	.
.	4e\	4c\	4f/
.	2c\	[2c\	[2f/
=107	=107	=107	=107
1G	2.d\	2c\]	2f/]
.	.	2B-\	2e/
.	8c\L	.	.
.	8B-\J	.	.
[1F;	[1A;	[1c;	[1f;
=108	=108	=108	=108
0F]	0A]	0c]	0f]
=109	=109	=109	=109
0c	0r	0r	1r
.	.	.	[1cc
=110	=110	=110	=110
[0F	0r	0r	1cc]
.	.	.	[1f
=111	=111	=111	=111
0F]	0f	0r	2f/]
.	.	.	2g/
.	.	.	1a
=112	=112	=112	=112
0G	2B-\	0g	0b-
.	2c\	.	.
.	2d\	.	.
.	[2e-\	.	.
=113	=113	=113	=113
0A	2e-\]	2c\	1a
.	2d\	2d\	.
.	1c	2e\	1cc
.	.	[2f\	.
=114	=114	=114	=114
1.B-	2B-\	2f\]	2f/
.	2G/	2e\	1g
.	2r	2d\	.
2A\	2f\	2c\	2a/
=115	=115	=115	=115
1G	1B-	2d\	1b-
.	.	2e\	.
[1F	1c	1f	1a
=116	=116	=116	=116
2F\]	2d\	2r	2f/
4E-i\	1e-i	2B-\	2.g/
4D\	.	.	.
2E-i\	.	2B-\	.
.	.	.	4f/
2F\	2d\	2A/	[2f/
=117	=117	=117	=117
1C	1c	1G	2f/]
.	.	.	2e/
[1G	[1B-	[1g	2.d/
.	.	.	4c/
=118	=118	=118	=118
1G]	1B-]	0g_	1d
[1C	2.e-i\	.	2.c/
.	4d\	.	4d/
=119	=119	=119	=119
2C/]	2.c\	1g]	2e/
2D\	.	.	2f/
.	8B-/L	.	.
.	8A/J	.	.
2E\	2G/	[1c	2g/
[2F\	[2A/	.	2c/
=120	=120	=120	=120
2F\]	4A/]	1c]	1cc
.	4G/	.	.
2E\	1c	.	.
1D	.	1d	1f
.	2Bni\	.	.
=121	=121	=121	=121
1C	1c	1e	1g
2r	2F/	1f	1a
2F\	[2c\	.	.
=122	=122	=122	=122
1G	2c\]	2e\	1b-
.	2B-\	2.d\	.
2F\	2.c\	.	2a/
.	.	4c\	.
2E\	.	[2c\	[2g/
.	4B-\	.	.
=123	=123	=123	=123
2F\	2A/	2c\]	4g/]
.	.	.	4f/
2D\	2F/	2B-\	1f
1C	1G	1c	.
.	.	.	2e/
=124	=124	=124	=124
0D	0F	0A	[0f
=125	=125	=125	=125
0BB-	2r	2r	1f]
.	2d\	2B-\	.
.	2.d\	1B-	2r
.	.	.	2f/
.	4c\	.	.
=126	=126	=126	=126
0r	2.B-\	1.d	1f
.	8A/L	.	.
.	8G/J	.	.
.	1F	.	[1a
.	.	2c\	.
=127	=127	=127	=127
1r	0r	2d\	2a/]
.	.	2e\	2g/
[1F	.	[1f	2a/
.	.	.	2b-\
=128	=128	=128	=128
1F]	0c	1f]	0cc
[1A	.	1r	.
=129	=129	=129	=129
2A\]	1.e	0r	0r
2G\	.	.	.
2A\	.	.	.
2B-\	2d\	.	.
=130	=130	=130	=130
2c\	2e\	2r	1cc
4B-\	2f\	2c\	.
4A\	.	.	.
1G	1g	[1d	2.b-\
.	.	.	8a/L
.	.	.	8g/J
=131	=131	=131	=131
0r	1f	1d]	2a/
.	.	.	2.b-\
.	2e\	2.c\	.
.	.	.	4a/
.	2c\	.	[2a/
.	.	4A/	.
=132	=132	=132	=132
1r	1d	1B-	2a/]
.	.	.	2g/
[1F	1r	[1A	[1a
=133	=133	=133	=133
1F]	0c	1A]	1a]
[1A	.	1r	1r
=134	=134	=134	=134
2A\]	1.e	0r	0r
2G\	.	.	.
2A\	.	.	.
2B-\	2d\	.	.
=135	=135	=135	=135
2c\	2e\	1r	0r
4B-\	2f\	.	.
4A\	.	.	.
1G	2g\	[1B-	.
.	4f\	.	.
.	4e\	.	.
=136	=136	=136	=136
0r	1d	1B-]	0f
.	1r	[1d	.
=137	=137	=137	=137
0r	0r	2d\]	1.a
.	.	2c\	.
.	.	2d\	.
.	.	2e\	2g/
=138	=138	=138	=138
0F	1r	2f\	2a/
.	.	4e\	2b-\
.	.	4d\	.
.	1f	1c	1cc
=139	=139	=139	=139
1G	2d\	1r	0r
.	2.e\	.	.
2F\	.	1f	.
.	4d\	.	.
2D\	[2d\	.	.
=140	=140	=140	=140
1E	2d\]	1g	2r
.	2c#i\	.	2g/
1D	1d	2f\	2a/
.	.	2d\	[2b-\
=141	=141	=141	=141
2r	2G/	2e\	4b-\]
.	.	.	4a/
2F\	1c	1f	1a
1G	.	.	.
.	2B-\	2e\	2g/
=142	=142	=142	=142
2F\	2c\	1f	1a
2D\	1f	.	.
2.E\	.	2r	2r
.	2e\	[2g\	[2cc\
4F\	.	.	.
=143	=143	=143	=143
1G	1d	2g\]	2cc\]
.	.	2f\	2b-\
1C	1c	2.e\	2a/
.	.	.	[2g/
.	.	8d\L	.
.	.	8c\J	.
=144	=144	=144	=144
2r	2B-\	2d\	4g/]
.	.	.	4f/
1c	2A/	2c\	1f
.	1G	1g	.
2B-\	.	.	2e/
=145	=145	=145	=145
2A\	2F/	0r	0d
2.G\	2.B-\	.	.
4F\	4A/	.	.
[2F\	[2A/	.	.
=146	=146	=146	=146
2F\]	2A/]	1r	1c
2E\	2G/	.	.
2D\	2d\	2r	2r
2C/	2e\	[2g\	[2cc\
=147	=147	=147	=147
1G	1d	2g\]	2cc\]
.	.	2f\	2b-\
2.C/	2r	2.e\	2a/
.	[2c\	.	[2g/
4D\	.	4d\	.
=148	=148	=148	=148
2E\	4c\]	0c	4g/]
.	4B-\	.	4f/
2F\	2A/	.	1f
1C	1G	.	.
.	.	.	2e/
=149	=149	=149	=149
2r	0F	0A	0f
1D	.	.	.
[2F\	.	.	.
=150	=150	=150	=150
2F\]	2r	1r	0r
2E\	2G/	.	.
1D	2B-\	2d\	.
.	2A/	2f\	.
=151	=151	=151	=151
1r	1G	2e\	2g/
.	.	2d\	2b-\
2r	1r	2f\	2a/
2G\	.	2e\	2g/
=152	=152	=152	=152
2B-\	2d\	2d\	1r
2A\	2f\	2c\	.
1G	2e\	2r	2g/
.	[2d\	2d\	2b-\
=153	=153	=153	=153
0r	2d\]	2f\	2a/
.	1G	2e\	2g/
.	.	2d\	2b-\
.	2F/	2f\	2a/
=154	=154	=154	=154
1r	2c\	2e\	2g/
.	2d\	2d\	2f/
[1C	[1e	[1c	1g
=155	=155	=155	=155
1C]	2e\]	2c\]	2g/
.	2c\	2e\	2.a/
2D\	2A/	1d	.
.	.	.	4g/
2BB-/	2B-\	.	[2f/
=156	=156	=156	=156
1C	1G	1c	2f/]
.	.	.	2e/
2r	[1F	[1A	[1f
[2D\	.	.	.
=157	=157	=157	=157
2D\]	1F]	1A]	1f]
1F	.	.	.
.	2r	1r	1r
2E\	2G/	.	.
=158	=158	=158	=158
1D	2B-\	2d\	1r
.	2A/	2f\	.
1r	1G	2e\	2g/
.	.	2d\	2b-\
=159	=159	=159	=159
2r	1r	2f\	2a/
2G\	.	2e\	2g/
2B-\	2d\	2d\	1r
2A\	2f\	2c\	.
=160	=160	=160	=160
1G	2e\	2r	2g/
.	1d	2d\	2b-\
1r	.	2f\	2a/
.	[2G/	2e\	2g/
=161	=161	=161	=161
0r	2G/]	2d\	2b-\
.	2F/	2f\	2a/
.	2c\	2e\	2g/
.	2d\	2d\	2f/
=162	=162	=162	=162
0C	1.e	1.c	1g
.	.	.	2g/
.	2c\	2e\	[2a/
=163	=163	=163	=163
2D\	2A/	1d	4a/]
.	.	.	4g/
2BB-/	2B-\	.	1f
1C	1G	1c	.
.	.	.	2e/
=164	=164	=164	=164
00F	00F	00c	00f
==	==	==	==
*-	*-	*-	*-
!!!RDF**kern: l=long note in original notation
!!!RDF**kern: i=editorial accidental
!!!ENC:	Will Watson 14/07/2011
!!!END:	2011/07/15/
!!!EED:	Jesse Rodin
!!!EEV:	2011/10/17/
!!attribution-level@Jos: 4 (questionable)
!!!ONB:	Translated from MusicXML and edited on 2011/10/17/ by Craig Sapp
!!muse2ps: C^@{COA}?\n@{SCT}^u^(2) @{OTL2}^I150v90,90,90,150i2I150c90Q16
